packages/core/src/svgs/networks/branded/wemix.svg

<svg width="24" height="24" viewBox="0 0 24 24" fill="none" xmlns="http://www.w3.org/2000/svg">
<path fill-rule="evenodd" clip-rule="evenodd" d="M21.9836 12.0097C21.9859 14.4406 21.101 16.7889 19.4948 18.6137C17.8887 20.4384 15.6717 21.6142 13.2602 21.9205C10.8486 22.2267 8.40813 21.6423 6.39688 20.2768C4.38564 18.9114 2.94184 16.8589 2.3365 14.5045H3.63195C4.23589 16.5099 5.5401 18.2315 7.30698 19.3558C9.07387 20.4802 11.1859 20.9323 13.2583 20.63C15.3306 20.3276 17.2254 19.291 18.5974 17.7088C19.9694 16.1265 20.7275 14.104 20.7333 12.0097H19.7391L18.3971 13.7229C18.3444 13.8111 18.2668 13.8817 18.1741 13.9261C18.0814 13.9703 17.9778 13.9864 17.876 13.9721C17.7743 13.9578 17.6789 13.9139 17.6021 13.8458C17.5252 13.7776 17.4702 13.6883 17.4437 13.589L16.6141 10.4508L15.732 14.8073C15.617 15.3779 14.7975 15.3604 14.7058 14.7855L13.8863 9.65171L12.7656 17.9571C12.7549 18.041 12.7237 18.1209 12.6745 18.1897C12.6253 18.2584 12.5598 18.3139 12.4838 18.351C12.4078 18.3881 12.3238 18.4057 12.2394 18.4022C12.155 18.3989 12.0726 18.3744 11.9999 18.3312C11.9122 18.2807 11.8414 18.205 11.7968 18.114C11.7522 18.0229 11.7358 17.9207 11.7496 17.8203L13.3289 6.13657C13.4089 5.53979 14.2677 5.53106 14.3623 6.12347L15.2793 11.8816L16.0362 8.13796C16.1454 7.59795 16.911 7.57466 17.0522 8.10885L18.1278 12.1713L19.0041 10.9908C19.0987 10.8322 19.269 10.7623 19.4539 10.7623H21.905C21.9564 11.1709 21.9836 11.5867 21.9836 12.0097ZM21.6678 9.51489C21.0397 7.05137 19.495 4.92038 17.3493 3.55687C15.2035 2.19335 12.6183 1.7001 10.1211 2.17779C7.62403 2.65549 5.40336 4.06809 3.91233 6.12733C2.42129 8.18656 1.7723 10.7371 2.09779 13.2586H4.70615C4.89537 13.2586 5.07004 13.1349 5.1632 12.9675L5.79345 12.049L6.9317 15.7214C7.09035 16.2323 7.82541 16.2017 7.9404 15.6777L8.72931 12.0869L9.64194 17.8101C9.73656 18.4069 10.5997 18.3923 10.6754 17.7956L12.1863 6.02449C12.2001 5.89154 12.1612 5.75849 12.0783 5.65369C11.9953 5.5489 11.8748 5.48068 11.7422 5.46359C11.6096 5.4465 11.4757 5.48189 11.3688 5.56221C11.262 5.64252 11.1907 5.7614 11.1703 5.89349L10.1034 14.2047L9.32172 9.30674C9.23148 8.73765 8.41928 8.71436 8.29701 9.27763L7.34799 13.6035L6.42225 10.6197C6.39112 10.5224 6.33225 10.4364 6.25291 10.3722C6.17356 10.308 6.07717 10.2683 5.9756 10.2581C5.87402 10.2479 5.77168 10.2676 5.68114 10.3147C5.59059 10.362 5.5158 10.4345 5.46595 10.5236L4.41067 12.0097H3.26952C3.26831 9.91109 4.0229 7.88212 5.39517 6.29424C6.76745 4.70635 8.66563 3.66573 10.7423 3.36283C12.8191 3.05991 14.9354 3.51498 16.704 4.64471C18.4728 5.77446 19.7754 7.50332 20.3738 9.51489H21.6678Z" fill="#27EA84"/>
</svg>

<svg xmlns="http://www.w3.org/2000/svg" width="24" height="24" fill="none" viewBox="0 0 24 24">
    <path fill="#27EA84" fill-rule="evenodd" d="M21.984 12.01a9.981 9.981 0 0 1-19.647 2.495h1.295a8.736 8.736 0 0 0 17.101-2.495h-.994l-1.342 1.713a.523.523 0 0 1-.953-.134l-.83-3.138-.882 4.356c-.115.57-.934.553-1.026-.021l-.82-5.134-1.12 8.305a.51.51 0 0 1-.97.157.5.5 0 0 1-.046-.294l1.579-11.683c.08-.597.939-.606 1.033-.014l.917 5.759.757-3.744c.11-.54.875-.563 1.016-.03l1.076 4.063.876-1.18c.095-.159.265-.229.45-.229h2.451q.078.613.079 1.248m-.316-2.495a9.981 9.981 0 0 0-19.57 3.744h2.608c.19 0 .364-.124.457-.292l.63-.918 1.139 3.672c.158.511.893.48 1.008-.043l.79-3.591.912 5.723c.095.597.958.582 1.033-.014l1.511-11.772a.513.513 0 0 0-1.016-.13l-1.067 8.31-.781-4.897c-.09-.57-.903-.593-1.025-.03l-.949 4.327-.926-2.984a.524.524 0 0 0-.956-.096L4.411 12.01H3.27a8.733 8.733 0 0 1 17.104-2.495z" clip-rule="evenodd"/>
</svg>
